styles/3/Numix/64/places/brown-folder-saved-search.svg

<?xml version="1.0" encoding="UTF-8" standalone="no"?>
<!-- Created with Inkscape (http://www.inkscape.org/) -->

<svg
   xmlns:dc="http://purl.org/dc/elements/1.1/"
   xmlns:cc="http://creativecommons.org/ns#"
   xmlns:rdf="http://www.w3.org/1999/02/22-rdf-syntax-ns#"
   xmlns:svg="http://www.w3.org/2000/svg"
   xmlns="http://www.w3.org/2000/svg"
   xmlns:sodipodi="http://sodipodi.sourceforge.net/DTD/sodipodi-0.dtd"
   xmlns:inkscape="http://www.inkscape.org/namespaces/inkscape"
   width="64"
   height="64"
   id="svg2"
   version="1.1"
   inkscape:version="0.91 r"
   sodipodi:docname="brown-folder-saved-search.svg"
   inkscape:export-filename="/media/Data/Main/Visuals/Icons/Numix/Desktop/repos/numix-wiki/Gjorgi/Numix-folders/48/New/folder-144.png"
   inkscape:export-xdpi="270"
   inkscape:export-ydpi="270">
  <defs
     id="defs4" />
  <sodipodi:namedview
     id="base"
     pagecolor="#ffffff"
     bordercolor="#666666"
     borderopacity="1.0"
     inkscape:pageopacity="0.0"
     inkscape:pageshadow="2"
     inkscape:zoom="12.12"
     inkscape:cx="24.811248"
     inkscape:cy="25.957138"
     inkscape:document-units="px"
     inkscape:current-layer="layer1"
     showgrid="true"
     inkscape:window-width="1280"
     inkscape:window-height="998"
     inkscape:window-x="0"
     inkscape:window-y="0"
     inkscape:window-maximized="1"
     showguides="true"
     inkscape:guide-bbox="true">
    <inkscape:grid
       type="xygrid"
       id="grid2985"
       empspacing="5"
       visible="true"
       enabled="true"
       snapvisiblegridlinesonly="true" />
  </sodipodi:namedview>
  <metadata
     id="metadata7">
    <rdf:RDF>
      <cc:Work
         rdf:about="">
        <dc:format>image/svg+xml</dc:format>
        <dc:type
           rdf:resource="http://purl.org/dc/dcmitype/StillImage" />
        <dc:title />
      </cc:Work>
    </rdf:RDF>
  </metadata>
  <g
     inkscape:label="Layer 1"
     inkscape:groupmode="layer"
     id="layer1"
     transform="translate(0,-988.3622)">
    <rect
       style="fill:#5d4037;fill-opacity:1;stroke:none"
       id="rect3757"
       width="52"
       height="20"
       x="6"
       y="1000.3622" />
    <path
       style="fill:#5d4037;fill-opacity:1;stroke:none"
       d="m 12,1000.3622 c 0,-2 0,-4 2.909091,-4 l 10.181819,0 c 2.90909,0 2.90909,2 2.90909,4 l 0,2 -16,0 z"
       id="path3759"
       inkscape:connector-curvature="0"
       sodipodi:nodetypes="ccccccc" />
    <path
       style="fill:#95989f;fill-opacity:1;stroke:none"
       d="m 10,1004.3622 44,0 0,9.9354 -44,0 z"
       id="path3765"
       inkscape:connector-curvature="0" />
    <rect
       y="1002.3622"
       x="14"
       height="25.999954"
       width="38"
       id="rect3763"
       style="fill:#d8d8da;fill-opacity:1;stroke:none" />
    <rect
       style="fill:#f9f9f9;fill-opacity:1;stroke:none"
       id="rect3761"
       width="38"
       height="25.999954"
       x="12"
       y="1006.3622" />
    <path
       style="fill:#8d6e63;fill-opacity:1;stroke:none"
       d="m 2,1008.3622 60,0 -4.285714,36 -51.428572,0 z"
       id="path2987"
       inkscape:connector-curvature="0"
       sodipodi:nodetypes="ccccc" />
    <path
       style="opacity:1.0;fill:#634b43;fill-opacity:1;stroke:none"
       d="M 36 24 C 30.477153 24 26 28.4772 26 34 C 26 36.095783 26.648062 38.049132 27.75 39.65625 C 27.509319 39.754184 27.258369 39.897881 27.0625 40.09375 L 18.59375 48.59375 C 17.810276 49.377224 17.810276 50.622776 18.59375 51.40625 C 19.377224 52.189724 20.622776 52.189724 21.40625 51.40625 L 29.90625 42.9375 C 30.102119 42.741631 30.245816 42.490681 30.34375 42.25 C 31.950866 43.351944 33.904199 44 36 44 C 41.522847 44 46 39.5228 46 34 C 46 28.4772 41.522847 24 36 24 z M 36 27 C 39.865993 27 43 30.134 43 34 C 43 37.866 39.865993 41 36 41 C 32.134007 41 29 37.866 29 34 C 29 30.134 32.134007 27 36 27 z "
       transform="translate(0,988.3622)"
       id="rect3055" />
  </g>
</svg>

<!-- Created with Inkscape (http://www.inkscape.org/) -->
<svg xmlns="http://www.w3.org/2000/svg" viewBox="0 0 64 64">
 <g transform="translate(0,-988.3622)">
  <rect width="52" height="20" x="6" y="1000.36" style="fill:#5d4037;fill-opacity:1;stroke:none"/>
  <path d="m 12 1000.36 c 0 -2 0 -4 2.909 -4 l 10.182 0 c 2.909 0 2.909 2 2.909 4 l 0 2 -16 0 z" style="fill:#5d4037;fill-opacity:1;stroke:none"/>
  <path d="m 10 1004.36 44 0 0 9.935 -44 0 z" style="fill:#95989f;fill-opacity:1;stroke:none"/>
  <rect y="1002.36" x="14" height="26" width="38" style="fill:#d8d8da;fill-opacity:1;stroke:none"/>
  <rect width="38" height="26" x="12" y="1006.36" style="fill:#f9f9f9;fill-opacity:1;stroke:none"/>
  <path d="m 2 1008.36 60 0 -4.286 36 -51.43 0 z" style="fill:#8d6e63;fill-opacity:1;stroke:none"/>
  <path d="m 36 24 c -5.523 0 -10 4.477 -10 10 c 0 2.096 0.648 4.049 1.75 5.656 c -0.241 0.098 -0.492 0.242 -0.688 0.438 l -8.469 8.5 c -0.783 0.783 -0.783 2.029 0 2.813 c 0.783 0.783 2.029 0.783 2.813 0 l 8.5 -8.469 c 0.196 -0.196 0.34 -0.447 0.438 -0.688 c 1.607 1.102 3.56 1.75 5.656 1.75 c 5.523 0 10 -4.477 10 -10 c 0 -5.523 -4.477 -10 -10 -10 z m 0 3 c 3.866 0 7 3.134 7 7 c 0 3.866 -3.134 7 -7 7 c -3.866 0 -7 -3.134 -7 -7 c 0 -3.866 3.134 -7 7 -7 z" transform="translate(0,988.3622)" style="fill:#634b43;opacity:1;fill-opacity:1;stroke:none"/>
 </g>
</svg>
